; generated by Slic3r 0.9.10b on 2013-12-03 at 20:58:45

; layer_height = 0.20
; perimeters = 4
; top_solid_layers = 5
; bottom_solid_layers = 5
; fill_density = 0.1
; perimeter_speed = 30
; infill_speed = 60
; travel_speed = 130
; nozzle_diameter = 0.35
; filament_diameter = 1.80
; extrusion_multiplier = 1
; perimeters extrusion width = 0.52mm
; infill extrusion width = 0.52mm
; solid infill extrusion width = 0.52mm
; top infill extrusion width = 0.52mm
; first layer extrusion width = 0.40mm

G21 ; set units to millimeters
M107
M190 S70 ; wait for bed temperature to be reached
M104 S210 ; set temperature
G28 ; home all axes
G1 Z5 F100 ; lift nozzle
M109 S210 ; wait for temperature to be reached
G90 ; use absolute coordinates
G92 E0
M82 ; use absolute distances for extrusion
G1 F1800.000 E-3.00000
G1 Z0.700 F7800.000
G92 E0
G1 X56.230 Y8.750
G1 Z0.200
G1 F1800.000 E3.50000
G1 X56.600 Y7.550 F540.000 E3.53842
G1 X57.190 Y6.450 E3.57661
G1 X57.980 Y5.480 E3.61488
G1 X58.950 Y4.690 E3.65316
G1 X60.050 Y4.100 E3.69135
G1 X61.250 Y3.730 E3.72977
G1 X62.500 Y3.610 E3.76818
G1 X137.500 Y3.610 E6.06279
G1 X138.750 Y3.730 E6.10120
G1 X139.950 Y4.100 E6.13962
G1 X141.050 Y4.690 E6.17781
G1 X142.020 Y5.480 E6.21609
G1 X142.810 Y6.450 E6.25436
G1 X143.400 Y7.550 E6.29255
G1 X143.770 Y8.750 E6.33097
G1 X143.890 Y10.000 E6.36939
G1 X143.890 Y190.000 E11.87643
G1 X143.770 Y191.250 E11.91485
G1 X143.400 Y192.450 E11.95327
G1 X142.810 Y193.550 E11.99146
G1 X142.020 Y194.520 E12.02973
G1 X141.050 Y195.310 E12.06801
G1 X139.950 Y195.900 E12.10620
G1 X138.750 Y196.270 E12.14462
G1 X137.500 Y196.390 E12.18304
G1 X62.500 Y196.390 E14.47764
G1 X61.250 Y196.270 E14.51606
G1 X60.050 Y195.900 E14.55447
G1 X58.950 Y195.310 E14.59266
G1 X57.980 Y194.520 E14.63094
G1 X57.190 Y193.550 E14.66921
G1 X56.600 Y192.450 E14.70740
G1 X56.230 Y191.250 E14.74582
G1 X56.110 Y190.000 E14.78424
G1 X56.110 Y10.000 E20.29128
G1 X56.224 Y8.808 E20.32792
G1 X56.600 Y7.550 F7800.000 E19.94917
G1 X57.190 Y6.450 E19.58910
G1 X57.980 Y5.480 E19.22824
G1 X58.950 Y4.690 E18.86737
G1 X60.050 Y4.100 E18.50730
G1 X61.250 Y3.730 E18.14507
G1 X62.500 Y3.610 E17.78283
G1 X64.077 Y3.610 E17.32792
G1 Z0.700
G92 E0
G1 X63.862 Y11.362
G1 Z0.200
G1 F1800.000 E3.50000
G1 X136.138 Y11.362 F540.000 E5.71123
G1 X136.138 Y188.638 E11.13491
G1 X63.862 Y188.638 E13.34614
G1 X63.862 Y11.421 E18.76803
G1 X63.473 Y10.973 F7800.000
G1 X136.527 Y10.973 F540.000 E21.00309
G1 X136.527 Y189.027 E26.45058
G1 X63.473 Y189.027 E28.68564
G1 X63.473 Y11.032 E34.13134
G1 X63.084 Y10.584 F7800.000
G1 X136.916 Y10.584 F540.000 E36.39022
G1 X136.916 Y189.416 E41.86153
G1 X63.084 Y189.416 E44.12040
G1 X63.084 Y10.642 E49.58993
G1 X62.695 Y10.195 F7800.000
G1 X137.305 Y10.195 F378.000 E51.87262
G1 X137.305 Y189.805 E57.36776
G1 X62.695 Y189.805 E59.65045
G1 X62.695 Y10.253 E65.14379
G1 X63.032 Y10.389 F7800.000
G1 X135.525 Y11.645
G1 X135.855 Y11.975 F1080.000 E65.15808
G1 X135.855 Y12.525 E65.17493
G1 X134.975 Y11.645 E65.21304
G1 X134.424 Y11.645 E65.22988
G1 X135.855 Y13.076 E65.29182
G1 X135.855 Y13.626 E65.30867
G1 X133.874 Y11.645 E65.39443
G1 X133.323 Y11.645 E65.41127
G1 X135.855 Y14.177 E65.52086
G1 X135.855 Y14.728 E65.53770
G1 X132.772 Y11.645 E65.67111
G1 X132.222 Y11.645 E65.68796
G1 X135.855 Y15.278 E65.84519
G1 X135.855 Y15.829 E65.86204
G1 X131.671 Y11.645 E66.04310
G1 X131.121 Y11.645 E66.05995
G1 X135.855 Y16.379 E66.26483
G1 X135.855 Y16.930 E66.28167
G1 X130.570 Y11.645 E66.51038
G1 X130.020 Y11.645 E66.52723
G1 X135.855 Y17.480 E66.77976
G1 X135.855 Y18.031 E66.79661
G1 X129.469 Y11.645 E67.07296
G1 X128.918 Y11.645 E67.08981
G1 X135.855 Y18.582 E67.38999
G1 X135.855 Y19.132 E67.40684
G1 X128.368 Y11.645 E67.73084
G1 X127.817 Y11.645 E67.74769
G1 X135.855 Y19.683 E68.09552
G1 X135.855 Y20.233 E68.11237
G1 X127.267 Y11.645 E68.48402
G1 X126.716 Y11.645 E68.50087
G1 X135.855 Y20.784 E68.89635
G1 X135.855 Y21.334 E68.91319
G1 X126.166 Y11.645 E69.33250
G1 X125.615 Y11.645 E69.34934
G1 X135.855 Y21.885 E69.79247
G1 X135.855 Y22.436 E69.80932
G1 X125.064 Y11.645 E70.27627
G1 X124.514 Y11.645 E70.29312
G1 X135.855 Y22.986 E70.78390
G1 X135.855 Y23.537 E70.80074
G1 X123.963 Y11.645 E71.31535
G1 X123.413 Y11.645 E71.33219
G1 X135.855 Y24.087 E71.87062
G1 X135.855 Y24.638 E71.88747
G1 X122.862 Y11.645 E72.44972
G1 X122.312 Y11.645 E72.46656
G1 X135.855 Y25.188 E73.05264
G1 X135.855 Y25.739 E73.06949
G1 X121.761 Y11.645 E73.67939
G1 X121.210 Y11.645 E73.69623
G1 X135.855 Y26.290 E74.32996
G1 X135.855 Y26.840 E74.34680
G1 X120.660 Y11.645 E75.00435
G1 X120.109 Y11.645 E75.02120
G1 X135.855 Y27.391 E75.70257
G1 X135.855 Y27.941 E75.71942
G1 X119.559 Y11.645 E76.42462
G1 X119.008 Y11.645 E76.44147
G1 X135.855 Y28.492 E77.17049
G1 X135.855 Y29.042 E77.18734
G1 X118.458 Y11.645 E77.94018
G1 X117.907 Y11.645 E77.95703
G1 X135.855 Y29.593 E78.73370
G1 X135.855 Y30.144 E78.75055
G1 X117.356 Y11.645 E79.55105
G1 X116.806 Y11.645 E79.56789
G1 X135.855 Y30.694 E80.39221
G1 X135.855 Y31.245 E80.40906
G1 X116.255 Y11.645 E81.25721
G1 X115.705 Y11.645 E81.27405
G1 X135.855 Y31.795 E82.14602
G1 X135.855 Y32.346 E82.16287
G1 X115.154 Y11.645 E83.05866
G1 X114.604 Y11.645 E83.07551
G1 X135.855 Y32.896 E83.99513
G1 X135.855 Y33.447 E84.01198
G1 X114.053 Y11.645 E84.95542
G1 X113.502 Y11.645 E84.97227
G1 X135.855 Y33.998 E85.93954
G1 X135.855 Y34.548 E85.95638
G1 X112.952 Y11.645 E86.94748
G1 X112.401 Y11.645 E86.96432
G1 X135.855 Y35.099 E87.97924
G1 X135.855 Y35.649 E87.99609
G1 X111.851 Y11.645 E89.03483
G1 X111.300 Y11.645 E89.05168
G1 X135.855 Y36.200 E90.11424
G1 X135.855 Y36.750 E90.13109
G1 X110.750 Y11.645 E91.21748
G1 X110.199 Y11.645 E91.23433
G1 X135.855 Y37.301 E92.34455
G1 X135.855 Y37.852 E92.36139
G1 X109.648 Y11.645 E93.49543
G1 X109.098 Y11.645 E93.51228
G1 X135.855 Y38.402 E94.67014
G1 X135.855 Y38.953 E94.68699
G1 X108.547 Y11.645 E95.86868
G1 X107.997 Y11.645 E95.88553
G1 X135.855 Y39.503 E97.09104
G1 X135.855 Y40.054 E97.10789
G1 X107.446 Y11.645 E98.33723
G1 X106.896 Y11.645 E98.35407
G1 X135.855 Y40.604 E99.60724
G1 X135.855 Y41.155 E99.62408
G1 X106.345 Y11.645 E100.90107
G1 X105.794 Y11.645 E100.91792
G1 X135.855 Y41.706 E102.21873
G1 X135.855 Y42.256 E102.23558
G1 X105.244 Y11.645 E103.56021
G1 X104.693 Y11.645 E103.57706
G1 X135.855 Y42.807 E104.92552
G1 X135.855 Y43.357 E104.94237
G1 X104.143 Y11.645 E106.31466
G1 X103.592 Y11.645 E106.33150
G1 X135.855 Y43.908 E107.72761
G1 X135.855 Y44.458 E107.74446
G1 X103.041 Y11.645 E109.16439
G1 X102.491 Y11.645 E109.18124
G1 X135.855 Y45.009 E110.62500
G1 X135.855 Y45.560 E110.64185
G1 X101.940 Y11.645 E112.10943
G1 X101.390 Y11.645 E112.12628
G1 X135.855 Y46.110 E113.61769
G1 X135.855 Y46.661 E113.63453
G1 X100.839 Y11.645 E115.14977
G1 X100.289 Y11.645 E115.16661
G1 X135.855 Y47.211 E116.70567
G1 X135.855 Y47.762 E116.72252
G1 X99.738 Y11.645 E118.28540
G1 X99.187 Y11.645 E118.30225
G1 X135.855 Y48.313 E119.88896
G1 X135.855 Y48.863 E119.90580
G1 X98.637 Y11.645 E121.51633
G1 X98.086 Y11.645 E121.53318
G1 X135.855 Y49.414 E123.16754
G1 X135.855 Y49.964 E123.18438
G1 X97.536 Y11.645 E124.84257
G1 X96.985 Y11.645 E124.85941
G1 X135.855 Y50.515 E126.54142
G1 X135.855 Y51.065 E126.55826
G1 X96.435 Y11.645 E128.26409
G1 X95.884 Y11.645 E128.28094
G1 X135.855 Y51.616 E130.01060
G1 X135.855 Y52.167 E130.02744
G1 X95.333 Y11.645 E131.78092
G1 X94.783 Y11.645 E131.79777
G1 X135.855 Y52.717 E133.57507
G1 X135.855 Y53.268 E133.59192
G1 X94.232 Y11.645 E135.39305
G1 X93.682 Y11.645 E135.40989
G1 X135.855 Y53.818 E137.23485
G1 X135.855 Y54.369 E137.25169
G1 X93.131 Y11.645 E139.10047
G1 X92.581 Y11.645 E139.11732
G1 X135.855 Y54.919 E140.98992
G1 X135.855 Y55.470 E141.00676
G1 X92.030 Y11.645 E142.90319
G1 X91.479 Y11.645 E142.92004
G1 X135.855 Y56.021 E144.84029
G1 X135.855 Y56.571 E144.85714
G1 X90.929 Y11.645 E146.80121
G1 X90.378 Y11.645 E146.81806
G1 X135.855 Y57.122 E148.78596
G1 X135.855 Y57.672 E148.80280
G1 X89.828 Y11.645 E150.79453
G1 X89.277 Y11.645 E150.81138
G1 X135.855 Y58.223 E152.82693
G1 X135.855 Y58.773 E152.84377
G1 X88.727 Y11.645 E154.88315
G1 X88.176 Y11.645 E154.89999
G1 X135.855 Y59.324 E156.96319
G1 X135.855 Y59.875 E156.98004
G1 X87.625 Y11.645 E159.06706
G1 X87.075 Y11.645 E159.08391
G1 X135.855 Y60.425 E161.19475
G1 X135.855 Y60.976 E161.21160
G1 X86.524 Y11.645 E163.34627
G1 X85.974 Y11.645 E163.36312
G1 X135.855 Y61.526 E165.52162
G1 X135.855 Y62.077 E165.53846
G1 X85.423 Y11.645 E167.72078
G1 X84.873 Y11.645 E167.73763
G1 X135.855 Y62.627 E169.94378
G1 X135.855 Y63.178 E169.96062
G1 X84.322 Y11.645 E172.19059
G1 X83.771 Y11.645 E172.20744
G1 X135.855 Y63.729 E174.46124
G1 X135.855 Y64.279 E174.47808
G1 X83.221 Y11.645 E176.75570
G1 X82.670 Y11.645 E176.77255
G1 X135.855 Y64.830 E179.07399
G1 X135.855 Y65.380 E179.09084
G1 X82.120 Y11.645 E181.41611
G1 X81.569 Y11.645 E181.43295
G1 X135.855 Y65.931 E183.78205
G1 X135.855 Y66.481 E183.79889
G1 X81.019 Y11.645 E186.17181
G1 X80.468 Y11.645 E186.18866
G1 X135.855 Y67.032 E188.58540
G1 X135.855 Y67.583 E188.60225
G1 X79.917 Y11.645 E191.02281
G1 X79.367 Y11.645 E191.03966
G1 X135.855 Y68.133 E193.48405
G1 X135.855 Y68.684 E193.50090
G1 X78.816 Y11.645 E195.96911
G1 X78.266 Y11.645 E195.98596
G1 X135.855 Y69.234 E198.47800
G1 X135.855 Y69.785 E198.49485
G1 X77.715 Y11.645 E201.01071
G1 X77.165 Y11.645 E201.02756
G1 X135.855 Y70.335 E203.56725
G1 X135.855 Y70.886 E203.58410
G1 X76.614 Y11.645 E206.14761
G1 X76.063 Y11.645 E206.16446
G1 X135.855 Y71.437 E208.75180
G1 X135.855 Y71.987 E208.76864
G1 X75.513 Y11.645 E211.37981
G1 X74.962 Y11.645 E211.39665
G1 X135.855 Y72.538 E214.03164
G1 X135.855 Y73.088 E214.04849
G1 X74.412 Y11.645 E216.70730
G1 X73.861 Y11.645 E216.72415
G1 X135.855 Y73.639 E219.40678
G1 X135.855 Y74.189 E219.42363
G1 X73.311 Y11.645 E222.13009
G1 X72.760 Y11.645 E222.14694
G1 X135.855 Y74.740 E224.87722
G1 X135.855 Y75.291 E224.89407
G1 X72.209 Y11.645 E227.64818
G1 X71.659 Y11.645 E227.66503
G1 X135.855 Y75.841 E230.44296
G1 X135.855 Y76.392 E230.45981
G1 X71.108 Y11.645 E233.26157
G1 X70.558 Y11.645 E233.27842
G1 X135.855 Y76.942 E236.10400
G1 X135.855 Y77.493 E236.12085
G1 X70.007 Y11.645 E238.97026
G1 X69.457 Y11.645 E238.98710
G1 X135.855 Y78.043 E241.86034
G1 X135.855 Y78.594 E241.87718
G1 X68.906 Y11.645 E244.77424
G1 X68.355 Y11.645 E244.79109
G1 X135.855 Y79.145 E247.71197
G1 X135.855 Y79.695 E247.72882
G1 X67.805 Y11.645 E250.67352
G1 X67.254 Y11.645 E250.69037
G1 X135.855 Y80.246 E253.65890
G1 X135.855 Y80.796 E253.67575
G1 X66.704 Y11.645 E256.66811
G1 X66.153 Y11.645 E256.68495
G1 X135.855 Y81.347 E259.70113
G1 X135.855 Y81.897 E259.71798
G1 X65.603 Y11.645 E262.75798
G1 X65.052 Y11.645 E262.77483
G1 X135.855 Y82.448 E265.83866
G1 X135.855 Y82.999 E265.85551
G1 X64.501 Y11.645 E268.94316
G1 X64.145 Y11.838 E268.95559
G1 X135.855 Y83.549 E272.05868
G1 X135.855 Y84.100 E272.07553
G1 X64.145 Y12.389 E275.17863
G1 X64.145 Y12.939 E275.19547
G1 X135.855 Y84.650 E278.29857
G1 X135.855 Y85.201 E278.31541
G1 X64.145 Y13.490 E281.41851
G1 X64.145 Y14.041 E281.43536
G1 X135.855 Y85.751 E284.53845
G1 X135.855 Y86.302 E284.55530
G1 X64.145 Y14.591 E287.65840
G1 X64.145 Y15.142 E287.67524
G1 X135.855 Y86.853 E290.77834
G1 X135.855 Y87.403 E290.79519
G1 X64.145 Y15.692 E293.89828
G1 X64.145 Y16.243 E293.91513
G1 X135.855 Y87.954 E297.01822
G1 X135.855 Y88.504 E297.03507
G1 X64.145 Y16.793 E300.13817
G1 X64.145 Y17.344 E300.15501
G1 X135.855 Y89.055 E303.25811
G1 X135.855 Y89.605 E303.27496
G1 X64.145 Y17.895 E306.37805
G1 X64.145 Y18.445 E306.39490
G1 X135.855 Y90.156 E309.49799
G1 X135.855 Y90.707 E309.51484
G1 X64.145 Y18.996 E312.61794
G1 X64.145 Y19.546 E312.63478
G1 X135.855 Y91.257 E315.73788
G1 X135.855 Y91.808 E315.75473
G1 X64.145 Y20.097 E318.85782
G1 X64.145 Y20.647 E318.87467
G1 X135.855 Y92.358 E321.97777
G1 X135.855 Y92.909 E321.99461
G1 X64.145 Y21.198 E325.09771
G1 X64.145 Y21.749 E325.11456
G1 X135.855 Y93.459 E328.21765
G1 X135.855 Y94.010 E328.23450
G1 X64.145 Y22.299 E331.33759
G1 X64.145 Y22.850 E331.35444
G1 X135.855 Y94.561 E334.45754
G1 X135.855 Y95.111 E334.47438
G1 X64.145 Y23.400 E337.57748
G1 X64.145 Y23.951 E337.59433
G1 X135.855 Y95.662 E340.69742
G1 X135.855 Y96.212 E340.71427
G1 X64.145 Y24.501 E343.81736
G1 X64.145 Y25.052 E343.83421
G1 X135.855 Y96.763 E346.93731
G1 X135.855 Y97.314 E346.95415
G1 X64.145 Y25.603 E350.05725
G1 X64.145 Y26.153 E350.07410
G1 X135.855 Y97.864 E353.17719
G1 X135.855 Y98.415 E353.19404
G1 X64.145 Y26.704 E356.29714
G1 X64.145 Y27.254 E356.31398
G1 X135.855 Y98.965 E359.41708
G1 X135.855 Y99.516 E359.43392
G1 X64.145 Y27.805 E362.53702
G1 X64.145 Y28.355 E362.55387
G1 X135.855 Y100.066 E365.65696
G1 X135.855 Y100.617 E365.67381
G1 X64.145 Y28.906 E368.77691
G1 X64.145 Y29.457 E368.79375
G1 X135.855 Y101.168 E371.89685
G1 X135.855 Y101.718 E371.91370
G1 X64.145 Y30.007 E375.01679
G1 X64.145 Y30.558 E375.03364
G1 X135.855 Y102.269 E378.13673
G1 X135.855 Y102.819 E378.15358
G1 X64.145 Y31.108 E381.25668
G1 X64.145 Y31.659 E381.27352
G1 X135.855 Y103.370 E384.37662
G1 X135.855 Y103.920 E384.39347
G1 X64.145 Y32.209 E387.49656
G1 X64.145 Y32.760 E387.51341
G1 X135.855 Y104.471 E390.61651
G1 X135.855 Y105.022 E390.63335
G1 X64.145 Y33.311 E393.73645
G1 X64.145 Y33.861 E393.75329
G1 X135.855 Y105.572 E396.85639
G1 X135.855 Y106.123 E396.87324
G1 X64.145 Y34.412 E399.97633
G1 X64.145 Y34.962 E399.99318
G1 X135.855 Y106.673 E403.09628
G1 X135.855 Y107.224 E403.11312
G1 X64.145 Y35.513 E406.21622
G1 X64.145 Y36.063 E406.23307
G1 X135.855 Y107.774 E409.33616
G1 X135.855 Y108.325 E409.35301
G1 X64.145 Y36.614 E412.45610
G1 X64.145 Y37.165 E412.47295
G1 X135.855 Y108.876 E415.57605
G1 X135.855 Y109.426 E415.59289
G1 X64.145 Y37.715 E418.69599
G1 X64.145 Y38.266 E418.71284
G1 X135.855 Y109.977 E421.81593
G1 X135.855 Y110.527 E421.83278
G1 X64.145 Y38.816 E424.93588
G1 X64.145 Y39.367 E424.95272
G1 X135.855 Y111.078 E428.05582
G1 X135.855 Y111.628 E428.07266
G1 X64.145 Y39.917 E431.17576
G1 X64.145 Y40.468 E431.19261
G1 X135.855 Y112.179 E434.29570
G1 X135.855 Y112.730 E434.31255
G1 X64.145 Y41.019 E437.41565
G1 X64.145 Y41.569 E437.43249
G1 X135.855 Y113.280 E440.53559
G1 X135.855 Y113.831 E440.55244
G1 X64.145 Y42.120 E443.65553
G1 X64.145 Y42.670 E443.67238
G1 X135.855 Y114.381 E446.77547
G1 X135.855 Y114.932 E446.79232
G1 X64.145 Y43.221 E449.89542
G1 X64.145 Y43.771 E449.91226
G1 X135.855 Y115.482 E453.01536
G1 X135.855 Y116.033 E453.03221
G1 X64.145 Y44.322 E456.13530
G1 X64.145 Y44.873 E456.15215
G1 X135.855 Y116.584 E459.25524
G1 X135.855 Y117.134 E459.27209
G1 X64.145 Y45.423 E462.37519
G1 X64.145 Y45.974 E462.39203
G1 X135.855 Y117.685 E465.49513
G1 X135.855 Y118.235 E465.51198
G1 X64.145 Y46.524 E468.61507
G1 X64.145 Y47.075 E468.63192
G1 X135.855 Y118.786 E471.73502
G1 X135.855 Y119.336 E471.75186
G1 X64.145 Y47.626 E474.85496
G1 X64.145 Y48.176 E474.87180
G1 X135.855 Y119.887 E477.97490
G1 X135.855 Y120.438 E477.99175
G1 X64.145 Y48.727 E481.09484
G1 X64.145 Y49.277 E481.11169
G1 X135.855 Y120.988 E484.21479
G1 X135.855 Y121.539 E484.23163
G1 X64.145 Y49.828 E487.33473
G1 X64.145 Y50.378 E487.35158
G1 X135.855 Y122.089 E490.45467
G1 X135.855 Y122.640 E490.47152
G1 X64.145 Y50.929 E493.57461
G1 X64.145 Y51.480 E493.59146
G1 X135.855 Y123.190 E496.69456
G1 X135.855 Y123.741 E496.71140
G1 X64.145 Y52.030 E499.81450
G1 X64.145 Y52.581 E499.83135
G1 X135.855 Y124.292 E502.93444
G1 X135.855 Y124.842 E502.95129
G1 X64.145 Y53.131 E506.05439
G1 X64.145 Y53.682 E506.07123
G1 X135.855 Y125.393 E509.17433
G1 X135.855 Y125.943 E509.19117
G1 X64.145 Y54.232 E512.29427
G1 X64.145 Y54.783 E512.31112
G1 X135.855 Y126.494 E515.41421
G1 X135.855 Y127.044 E515.43106
G1 X64.145 Y55.334 E518.53416
G1 X64.145 Y55.884 E518.55100
G1 X135.855 Y127.595 E521.65410
G1 X135.855 Y128.146 E521.67095
G1 X64.145 Y56.435 E524.77404
G1 X64.145 Y56.985 E524.79089
G1 X135.855 Y128.696 E527.89398
G1 X135.855 Y129.247 E527.91083
G1 X64.145 Y57.536 E531.01393
G1 X64.145 Y58.086 E531.03077
